X:576
T: WILT DU MEI SEI
N: E0539
O: Europa, Mitteleuropa, Deutschland, Franken
R: Liebes - Lied
M: 3/4
L: 1/8
K: F
fd | dcc2BG | GFF2
AG | F2B2d2 | c2z2
fd | dcc2BG | GFF2
cA | GABGFE | F2z2

@@@ Tune index: 4226
